X: 9599
T: Dawle's
R: polka
M: 2/4
K: Gmajor
|:G2 A/B/d|ed B/A/G|A2 Af|ed A/B/d|
G2 A/B/d|ed BG|AB cF|1 AG GD:|2 AG Gf||
|:ga/g/ fg/f/|ed Bd|e/f/e/d/ ef|ed A/B/d|
ga/g/ fg/f/|ed BG|AB cF|1 AG Gf:|2 AG GD||

